X: 2
T: Last Night's Fun
R: reel
M: 4/4
L: 1/8
K: Dmaj
ADFD A2 AB | AD (3FED EFGB | ADFD A2 (3Bcd | e2 fe dBAB :|df~f2 af~f2 | df~f2 egfe | df~f2 af~f2 | g2fg edBc | df~f2 af~f2 | defd e2 fg | ~a3 bafe g | f2 ed BcdB |


Tune 63	Setting 12511

